X: 249
T: Throw The Beetle At Her
R: slip jig
M: 9/8
L: 1/8
K: Bmin
|:f2B BAB gfe|f2B Bcd cBA|f2B BAB g3|efg afd cBA:|
|:d2f fef fef|d2f fef ecA|d2f fef fef|efg afd cBA:| 

